<?xml version='1.0' encoding='UTF-8' standalone='yes' ?><map version="1.10" tiledversion="1.9.1" orientation="orthogonal" renderorder="right-down" width="36" height="28" tilewidth="16" tileheight="16" nextlayerid="6" nextobjectid="1"><properties><property name="sw1" value="84" /><property name="sw2" value="61" /><property name="sw3" value="104" /><property name="sw4" value="124" /><property name="sw5" value="85" /><property name="sw6" value="105" /></properties><tileset firstgid="1" name="Dungeon_Tiles" columns="20" tilecount="400" tileheight="16" tilewidth="16"><image source="../../../../../../../../saf/folder1/Dungeon_Tiles.png" width="400" height="400" /></tileset><tileset firstgid="401" name="torch_1" columns="1" tilecount="1" tileheight="16" tilewidth="16"><image source="../../../../../../../../saf/folder1/2D Pixel Dungeon Asset Pack v2.0 (1)/2D Pixel Dungeon Asset Pack/items and trap_animation/torch/torch_1.png" width="16" height="16" /></tileset><tileset firstgid="402" name="Interior_Props_01" columns="38" tilecount="912" tileheight="16" tilewidth="16"><image source="../../../../../../../../saf/folder1/Interior_Props_01.png" width="608" height="384" /></tileset><tileset firstgid="1314" name="Resources" columns="25" tilecount="625" tileheight="16" tilewidth="16"><image source="../../../../../../../../saf/folder1/Resources.png" width="400" height="400" /></tileset><layer id="1" name="floor" width="36" height="28"><data encoding="csv">
0,0,0,0,0,0,0,0,0,0,0,0,0,0,0,0,0,0,0,0,0,0,0,0,0,0,0,0,0,0,0,0,0,0,0,0,
0,0,0,0,0,0,0,0,0,0,0,0,0,0,0,0,0,0,0,0,0,0,0,0,0,0,0,0,0,0,0,0,0,0,0,0,
0,0,0,0,0,0,0,0,0,0,0,0,0,0,0,0,0,0,0,0,0,0,0,0,0,0,0,0,0,0,0,0,0,0,0,0,
0,0,5,6,6,6,6,6,6,6,7,0,0,0,0,0,0,0,6,6,6,6,6,7,0,0,0,0,0,0,0,0,0,0,0,0,
0,0,25,26,26,26,26,26,26,26,27,0,0,0,0,0,0,0,30,26,26,26,26,27,0,0,0,0,0,5,6,6,6,7,0,0,
0,0,25,26,26,26,26,26,26,26,48,6,6,6,6,6,6,6,50,26,26,26,26,27,0,0,0,0,0,25,26,26,26,27,0,0,
0,0,25,268,26,26,26,26,26,26,26,46,46,46,46,46,46,46,10,26,230,26,26,27,0,0,0,0,0,45,3221225538,26,67,47,0,0,
0,0,45,46,46,46,46,46,46,46,47,0,0,0,0,0,0,0,45,46,10,8,46,47,0,0,0,0,0,0,88,88,88,0,0,0,
0,0,0,0,0,0,0,0,0,0,0,0,0,0,0,0,0,0,0,0,30,28,0,0,0,0,0,0,0,104,88,88,88,105,0,0,
0,0,0,0,0,0,0,0,0,0,0,0,0,0,0,0,0,0,0,0,30,28,0,0,0,0,0,0,0,104,88,88,88,105,0,0,
0,0,0,0,0,0,0,0,0,0,0,0,0,0,0,0,0,0,0,0,30,28,0,0,0,0,0,0,0,104,166,167,88,105,0,0,
0,0,0,0,0,0,0,0,0,0,0,0,0,0,0,0,0,0,0,0,30,28,0,0,0,0,0,0,0,83,166,166,167,81,0,0,
0,0,0,0,0,0,5,6,6,6,6,6,6,6,6,6,6,6,6,6,50,48,6,7,0,0,0,0,0,0,68,68,68,0,0,0,
0,0,0,0,0,0,25,8,46,46,46,46,46,46,46,46,46,46,46,46,46,46,46,47,0,0,0,0,0,0,6,6,6,0,0,0,
0,0,0,0,0,0,25,27,0,0,0,0,0,0,0,0,0,0,0,0,0,0,0,0,0,0,0,0,0,68,3221225539,26,66,68,0,0,
0,0,0,0,0,0,25,27,0,0,0,0,0,0,0,0,0,0,0,0,0,0,0,0,0,0,0,0,0,5,26,26,26,7,0,0,
0,0,0,0,0,0,25,27,0,0,0,0,0,0,0,0,0,0,0,0,0,0,0,0,0,0,0,0,0,25,26,26,26,27,0,0,
0,0,0,0,0,0,25,27,0,0,0,0,0,0,0,0,0,0,0,0,0,0,0,0,0,0,0,0,0,25,26,26,26,27,0,0,
0,0,0,5,6,6,50,48,48,6,7,0,0,0,0,0,5,6,6,6,6,6,6,7,0,0,0,0,0,25,26,26,26,27,0,0,
0,0,0,25,26,26,26,26,26,26,27,0,0,0,0,0,25,26,26,26,26,26,26,27,0,0,0,0,0,25,26,26,26,27,0,0,
0,0,0,25,26,26,268,26,26,26,27,0,0,0,0,0,25,26,268,26,26,26,26,27,0,0,0,0,0,25,26,26,26,27,0,0,
0,0,0,25,26,26,26,26,26,231,48,6,6,26,6,6,50,26,26,26,26,26,26,48,6,6,6,6,6,50,26,26,26,27,0,0,
0,0,0,25,26,249,250,26,26,26,8,46,46,46,46,46,10,26,26,26,26,26,26,8,46,46,46,46,46,10,26,26,26,27,0,0,
0,0,0,25,26,269,270,26,26,26,27,0,0,0,0,0,25,26,26,26,26,26,26,27,0,0,0,0,0,25,26,26,26,27,0,0,
0,0,0,25,26,26,26,26,26,268,27,0,0,0,0,0,25,26,26,26,26,26,26,27,0,0,0,0,0,25,26,26,26,27,0,0,
0,0,0,25,46,46,46,46,46,46,47,0,0,0,0,0,45,46,46,46,46,46,46,47,0,0,0,0,0,45,46,46,46,47,0,0,
0,0,0,0,0,0,0,0,0,0,0,0,0,0,0,0,0,0,0,0,0,0,0,0,0,0,0,0,0,0,26,26,26,0,0,0,
0,0,0,0,0,0,0,0,0,0,0,0,0,0,0,0,0,0,0,0,0,0,0,0,0,0,0,0,0,0,0,0,0,0,0,0
</data></layer><layer id="4" name="floorobjects" width="36" height="28"><data encoding="csv">
0,0,0,0,0,0,0,0,0,0,0,0,0,0,0,0,0,0,0,0,0,0,0,0,0,0,0,0,0,0,0,0,0,0,0,0,
0,0,0,0,0,0,0,0,0,0,0,0,0,0,0,0,0,0,0,0,0,0,0,0,0,0,0,0,0,0,0,0,0,0,0,0,
0,0,0,0,565,566,0,565,566,0,0,0,0,0,0,0,0,0,0,0,563,564,0,0,0,0,0,0,0,0,0,0,0,0,0,0,
0,0,682,0,603,604,0,603,604,0,0,0,0,0,0,0,0,0,0,0,601,602,0,0,0,0,0,0,0,0,0,0,0,0,0,0,
0,0,720,0,0,0,0,0,0,0,0,0,0,0,0,0,0,0,0,0,0,0,0,0,0,0,0,0,0,0,0,0,0,0,0,0,
0,0,0,0,0,0,0,0,0,0,0,0,0,0,0,0,0,0,0,0,0,0,0,0,0,0,0,0,0,0,0,0,0,0,0,0,
0,0,0,0,0,0,0,0,0,0,0,0,0,0,0,0,0,0,0,0,0,0,0,0,0,0,0,0,0,0,0,0,0,0,0,0,
0,0,0,0,0,0,0,0,0,0,682,0,0,0,0,0,0,0,0,0,0,0,0,682,0,0,0,0,0,0,0,0,0,0,0,0,
0,0,0,0,0,0,0,0,0,0,720,0,0,0,0,0,0,0,0,0,0,0,0,720,0,0,0,0,0,0,0,0,0,0,0,0,
0,0,0,0,0,0,0,0,0,0,0,0,0,0,0,0,0,0,0,0,0,0,0,0,0,0,0,0,0,0,0,0,0,0,0,0,
0,0,0,0,0,0,0,0,0,0,0,0,0,0,0,0,0,0,0,0,0,0,0,0,0,0,0,0,0,0,0,0,0,0,0,0,
0,0,0,0,0,0,0,0,0,0,0,0,0,0,0,0,0,0,0,0,0,0,0,0,0,0,0,0,0,0,0,0,0,0,0,0,
0,0,0,0,0,0,0,0,0,0,0,0,0,0,0,0,0,0,0,0,0,0,0,0,0,0,0,0,0,0,0,0,0,0,0,0,
0,0,0,0,0,0,0,0,0,0,0,0,0,0,0,0,0,0,0,0,0,0,0,0,0,0,0,0,0,0,0,0,0,0,0,0,
0,0,0,0,0,0,0,0,0,0,0,0,0,0,0,0,0,0,0,0,0,0,0,0,0,0,0,0,0,0,0,0,0,0,0,0,
0,0,0,0,0,0,0,0,0,0,0,0,0,0,0,0,0,0,0,0,0,0,0,0,0,0,0,0,0,0,0,0,0,0,0,0,
0,0,0,0,0,0,0,0,0,0,0,0,0,0,0,0,0,0,0,0,0,0,0,0,0,0,0,0,0,0,0,249,250,0,0,0,
0,0,0,0,0,0,0,0,0,0,0,0,0,0,0,0,0,0,0,0,0,0,0,0,0,0,0,0,0,0,0,269,270,0,0,0,
0,0,0,0,0,0,0,0,0,0,0,0,0,0,0,0,0,0,0,0,1391,1339,1340,1341,0,0,0,0,0,0,230,0,0,0,0,0,
0,0,0,0,0,0,0,0,0,0,0,0,0,0,0,0,1391,0,0,0,0,1364,1365,1366,0,0,0,0,0,0,0,0,0,0,0,0,
0,0,0,0,1540,0,0,0,0,0,0,0,0,0,0,0,0,0,0,0,0,0,0,0,0,0,0,0,0,0,0,0,231,0,0,0,
0,0,0,0,1565,0,0,0,0,0,0,0,0,0,0,0,0,0,0,0,0,0,0,0,0,0,0,0,0,0,0,0,0,0,0,0,
0,0,0,0,0,0,0,0,0,0,0,0,0,0,0,0,0,0,0,0,0,0,0,0,0,0,0,0,0,0,0,0,0,0,0,0,
0,0,0,0,0,0,0,0,0,0,0,0,0,0,0,0,0,1342,0,0,0,681,0,0,0,0,0,0,0,0,268,0,0,0,0,0,
0,0,0,0,0,0,0,0,0,0,0,0,0,0,0,0,0,0,0,0,0,719,0,0,0,0,0,0,0,0,0,0,0,0,0,0,
0,0,0,0,0,0,0,0,0,0,0,0,0,0,0,0,0,0,0,0,0,0,0,0,0,0,0,0,0,0,0,0,0,0,0,0,
0,0,0,0,0,0,0,0,0,0,0,0,0,0,0,0,0,0,0,0,0,0,0,0,0,0,0,0,0,0,0,0,0,0,0,0,
0,0,0,0,0,0,0,0,0,0,0,0,0,0,0,0,0,0,0,0,0,0,0,0,0,0,0,0,0,0,0,0,0,0,0,0
</data></layer><layer id="2" name="walls" width="36" height="28"><data encoding="csv">
0,84,82,82,82,82,82,82,82,82,82,85,0,0,0,0,0,84,82,82,82,82,82,82,85,0,0,0,0,0,0,0,0,0,0,0,
0,104,21,24,22,22,22,22,22,24,23,105,0,0,0,0,0,104,21,24,23,21,24,23,105,0,0,0,84,2,2,3,151,152,2684354644,0,
0,104,41,44,42,42,42,42,42,44,43,81,82,82,82,82,82,83,41,44,43,41,44,43,105,0,0,0,104,22,22,23,171,172,105,0,
0,104,0,64,0,0,0,0,0,64,0,101,24,22,24,22,24,103,0,64,0,0,64,0,105,0,0,0,104,42,42,43,191,192,105,0,
0,104,0,0,0,0,0,0,0,0,0,121,44,42,44,42,44,123,0,0,0,0,0,0,105,0,0,0,104,0,0,0,0,0,105,0,
0,104,0,0,0,0,0,0,0,0,0,0,64,0,64,0,64,0,0,0,0,0,0,0,105,0,0,0,104,0,0,0,0,0,105,0,
0,104,0,0,0,0,0,0,0,0,0,0,0,0,0,0,0,0,0,0,0,0,0,0,105,0,0,0,104,0,0,0,0,0,105,0,
0,104,0,0,0,0,0,0,0,0,0,61,62,62,62,62,62,63,0,0,0,0,0,0,105,0,0,0,124,63,0,0,0,61,125,0,
0,124,62,62,62,62,62,62,62,62,62,125,0,0,0,0,0,124,62,63,0,0,61,62,125,0,0,0,0,104,0,0,0,105,0,0,
0,0,0,0,0,84,82,82,82,82,82,82,82,82,82,82,82,82,82,83,0,0,81,82,85,0,0,0,0,104,0,0,0,105,0,0,
0,0,0,0,0,104,22,102,22,22,102,22,22,102,22,22,102,22,22,103,0,0,101,22,105,0,0,0,0,104,0,0,0,105,0,0,
0,0,0,0,0,104,42,122,42,42,122,42,42,122,42,42,122,42,42,123,0,0,121,42,105,0,0,0,84,83,0,0,0,81,85,0,
0,0,0,0,0,104,0,0,0,0,0,0,0,0,0,0,0,0,0,0,0,0,0,0,105,0,0,0,104,24,0,0,0,24,105,0,
0,0,0,0,0,104,0,0,0,0,0,0,0,0,0,0,0,0,0,0,0,0,0,0,105,0,0,0,104,44,0,0,0,44,105,0,
0,0,0,0,0,104,0,0,61,62,62,62,62,62,62,62,62,62,62,62,62,62,62,62,125,0,0,0,104,64,0,0,0,64,105,0,
0,0,84,82,82,83,0,0,81,82,82,85,0,0,0,84,82,82,82,82,82,82,82,82,85,0,0,0,104,0,0,0,0,0,105,0,
0,0,104,24,22,24,0,0,24,22,24,105,0,0,0,104,21,24,22,22,22,22,24,23,105,0,0,0,104,0,0,0,0,0,105,0,
0,0,104,44,42,44,0,0,44,42,44,105,0,0,0,104,41,44,42,42,42,42,44,43,105,0,0,0,104,0,0,0,0,0,105,0,
0,0,104,64,0,64,0,0,64,0,64,81,82,82,82,83,0,64,0,0,0,0,64,0,81,82,82,82,83,0,0,0,0,0,105,0,
0,0,104,0,0,0,0,0,0,0,0,21,22,22,22,23,0,0,0,0,0,0,0,0,101,22,22,22,103,0,0,0,0,0,105,0,
0,0,104,0,0,0,0,0,0,0,0,41,42,122,42,43,0,0,0,0,0,0,0,0,121,42,42,42,123,0,0,0,0,0,105,0,
0,0,104,0,0,0,0,0,0,0,0,0,0,0,0,0,0,0,0,0,0,0,0,0,0,0,0,0,0,0,0,0,0,0,105,0,
0,0,104,0,0,0,0,0,0,0,0,0,0,0,0,0,0,0,0,0,0,0,0,0,0,0,0,0,0,0,0,0,0,0,105,0,
0,0,104,0,0,0,0,0,0,0,0,61,62,62,62,63,0,0,0,0,0,0,0,0,61,62,62,62,63,0,0,0,0,0,105,0,
0,0,104,0,0,0,0,0,0,0,0,105,0,0,0,104,0,0,0,0,0,0,0,0,105,0,0,0,104,0,0,0,0,0,105,0,
0,0,104,0,0,0,0,0,0,0,0,105,0,0,0,104,0,0,0,0,0,0,0,0,105,0,0,0,104,0,0,0,0,0,105,0,
0,0,124,62,62,62,62,62,62,62,62,125,0,0,0,124,62,62,62,62,62,62,62,62,125,0,0,0,124,62,62,62,62,62,125,0,
0,0,0,0,0,0,0,0,0,0,0,0,0,0,0,0,0,0,0,0,0,0,0,0,0,0,0,0,0,0,0,0,0,0,0,0
</data></layer><layer id="3" name="ceiling" width="36" height="28"><data encoding="csv">
0,0,0,0,0,0,0,0,0,0,0,0,0,0,0,0,0,0,0,0,0,0,0,0,0,0,0,0,0,0,0,0,0,0,0,0,
0,0,0,0,0,0,0,0,0,0,0,0,0,0,0,0,0,0,0,0,0,0,0,0,0,0,0,0,0,0,0,0,0,0,0,0,
0,0,0,0,0,0,0,0,0,0,0,0,0,0,0,0,0,0,0,0,0,0,0,0,0,0,0,0,0,0,0,0,0,0,0,0,
0,0,0,0,0,0,0,0,0,0,0,0,0,0,0,0,0,0,0,0,0,0,0,0,0,0,0,0,0,0,0,0,0,0,0,0,
0,0,0,0,0,0,0,0,0,0,0,0,0,0,0,0,0,0,0,0,0,0,0,0,0,0,0,0,0,0,0,0,0,0,0,0,
0,0,0,0,0,0,0,0,0,0,0,0,0,0,0,0,0,0,0,0,0,0,0,0,0,0,0,0,0,0,0,0,0,0,0,0,
0,0,0,0,0,0,0,0,0,0,0,0,0,0,0,0,0,0,0,0,0,0,0,0,0,0,0,0,0,0,0,0,0,0,0,0,
0,0,0,0,0,0,0,0,0,0,0,0,0,0,0,0,0,0,0,0,0,0,0,0,0,0,0,0,0,0,0,0,0,0,0,0,
0,0,0,0,0,0,0,0,0,0,0,0,0,0,0,0,0,0,0,0,0,0,0,0,0,0,0,0,0,0,0,0,0,0,0,0,
0,0,0,0,0,0,0,0,0,0,0,0,0,0,0,0,0,0,0,0,0,0,0,0,0,0,0,0,0,261,262,263,264,265,0,0,
0,0,0,0,0,0,0,0,0,0,0,0,0,0,0,0,0,0,0,0,0,0,0,0,0,0,0,0,0,0,0,0,0,0,0,0,
0,0,0,0,0,0,0,0,0,0,0,0,0,0,0,0,0,0,0,0,0,0,0,0,0,0,0,0,0,0,0,0,0,0,0,0,
0,0,0,0,0,0,0,0,0,0,0,0,0,0,0,0,0,0,0,0,0,0,0,0,0,0,0,0,0,0,0,0,0,0,0,0,
0,0,0,0,0,0,0,0,0,0,0,0,0,0,0,0,0,0,0,0,0,0,0,0,0,0,0,0,0,0,0,0,0,0,0,0,
0,0,0,0,0,0,0,0,0,0,0,0,0,0,0,0,0,0,0,0,0,0,0,0,0,0,0,0,0,0,0,0,0,0,0,0,
0,0,0,0,0,0,0,0,0,0,0,0,0,0,0,0,0,0,0,0,0,0,0,0,0,0,0,0,0,0,0,0,0,0,0,0,
0,0,0,0,0,0,0,0,0,0,0,0,0,0,0,0,0,0,0,0,0,0,0,0,0,0,0,0,0,0,0,0,0,0,0,0,
0,0,0,0,0,0,0,0,0,0,0,0,0,0,0,0,0,0,0,0,0,0,0,0,0,0,0,0,0,0,0,0,0,0,0,0,
0,0,0,0,0,0,0,0,0,0,0,0,0,0,0,0,0,0,0,0,0,0,0,0,0,0,0,0,0,0,0,0,0,0,0,0,
0,0,0,0,0,0,0,0,0,0,0,0,0,0,0,0,0,0,0,0,0,0,0,0,0,0,0,0,0,0,0,0,0,0,0,0,
0,0,0,0,0,0,0,0,0,0,0,0,0,0,0,0,0,0,0,0,0,0,0,0,0,0,0,0,0,0,0,0,0,0,0,0,
0,0,0,0,0,0,0,0,0,0,0,0,0,0,0,0,0,0,0,0,0,0,0,0,0,0,0,0,0,0,0,0,0,0,0,0,
0,0,0,0,0,0,0,0,0,0,0,0,0,0,0,0,0,0,0,0,0,0,0,0,0,0,0,0,0,0,0,0,0,0,0,0,
0,0,0,0,0,0,0,0,0,0,0,0,0,0,0,0,0,0,0,0,0,0,0,0,0,0,0,0,0,0,0,0,0,0,0,0,
0,0,0,0,0,0,0,0,0,0,0,0,0,0,0,0,0,0,0,0,0,0,0,0,0,0,0,0,0,0,0,0,0,0,0,0,
0,0,0,0,0,0,0,0,0,0,0,0,0,0,0,0,0,0,0,0,0,0,0,0,0,0,0,0,0,0,0,0,0,0,0,0,
0,0,0,0,0,0,0,0,0,0,0,0,0,0,0,0,0,0,0,0,0,0,0,0,0,0,0,0,0,0,0,0,0,0,0,0,
0,0,0,0,0,0,0,0,0,0,0,0,0,0,0,0,0,0,0,0,0,0,0,0,0,0,0,0,0,0,0,0,0,0,0,0
</data></layer><layer id="5" name="wallobjects" width="36" height="28"><data encoding="csv">
0,0,0,0,0,0,0,0,0,0,0,0,0,0,0,0,0,0,0,0,0,0,0,0,0,0,0,0,0,0,0,0,0,0,0,0,
0,0,0,0,246,247,0,246,247,0,0,0,0,0,0,0,0,0,0,0,0,0,0,0,0,0,0,0,0,0,0,0,0,0,0,0,
0,0,0,0,266,267,0,266,267,0,0,0,0,0,0,0,0,0,0,0,0,0,0,0,0,0,0,0,0,0,0,0,0,0,0,0,
0,0,0,0,0,0,0,0,0,0,0,0,0,0,0,0,0,0,0,0,0,0,0,0,0,0,0,0,0,0,0,0,0,0,0,0,
0,0,0,0,0,0,0,0,0,0,0,0,0,0,0,0,0,0,0,0,0,0,0,0,0,0,0,0,0,0,0,0,0,0,0,0,
0,0,0,0,0,0,0,0,0,0,0,0,0,0,0,0,0,0,0,0,0,0,0,0,0,0,0,0,0,0,0,0,0,0,0,0,
0,0,0,0,0,0,0,0,0,0,0,0,0,0,0,0,0,0,0,0,0,0,0,0,0,0,0,0,0,0,0,0,0,0,0,0,
0,0,0,0,0,0,0,0,0,0,0,0,0,0,0,0,0,0,0,0,0,0,0,0,0,0,0,0,0,0,0,0,0,0,0,0,
0,0,0,0,0,0,0,0,0,0,0,0,0,0,0,0,0,0,0,0,0,0,0,0,0,0,0,0,0,0,0,0,0,0,0,0,
0,0,0,0,0,0,0,0,0,0,0,0,0,0,0,0,0,0,0,0,0,0,0,0,0,0,0,0,0,0,0,0,0,0,0,0,
0,0,0,0,0,0,0,0,643,644,0,643,644,0,643,644,0,643,644,0,0,0,0,0,0,0,0,0,0,0,0,0,0,0,0,0,
0,0,0,0,0,0,0,0,643,644,0,643,644,0,643,644,0,643,644,0,0,0,0,0,0,0,0,0,0,0,0,0,0,0,0,0,
0,0,0,0,0,0,0,0,0,0,0,0,0,0,0,0,0,0,0,0,0,0,0,0,0,0,0,0,0,0,0,0,0,0,0,0,
0,0,0,0,0,0,0,0,0,0,0,0,0,0,0,0,0,0,0,0,0,0,0,0,0,0,0,0,0,0,0,0,0,0,0,0,
0,0,0,0,0,0,0,0,0,0,0,0,0,0,0,0,0,0,0,0,0,0,0,0,0,0,0,0,0,0,0,0,0,0,0,0,
0,0,0,0,0,0,0,0,0,0,0,0,0,0,0,0,0,0,0,0,0,0,0,0,0,0,0,0,0,0,0,0,0,0,0,0,
0,0,0,0,0,0,0,0,0,0,0,0,0,0,0,0,0,0,0,0,0,0,0,0,0,0,0,0,0,0,0,0,0,0,0,0,
0,0,0,0,0,0,0,0,0,0,0,0,0,0,0,0,0,0,0,0,0,0,0,0,0,0,0,0,0,0,0,0,0,0,0,0,
0,0,0,0,0,0,0,0,0,0,0,0,0,0,0,0,0,0,0,0,0,0,0,0,0,0,0,0,0,0,0,0,0,0,0,0,
0,0,0,0,0,0,0,0,0,0,0,0,0,0,0,0,0,0,0,0,0,0,0,0,0,0,0,0,0,0,0,0,0,0,0,0,
0,0,0,0,0,0,0,0,0,0,0,0,0,0,0,0,0,0,0,0,0,0,0,0,0,0,0,0,0,0,0,0,0,0,0,0,
0,0,0,0,0,0,0,0,0,0,0,0,0,0,0,0,0,0,0,0,0,0,0,0,0,0,0,0,0,0,0,0,0,0,0,0,
0,0,0,0,0,0,0,0,0,0,0,0,0,0,0,0,0,0,0,0,0,0,0,0,0,0,0,0,0,0,0,0,0,0,0,0,
0,0,0,0,0,0,0,0,0,0,0,0,0,0,0,0,0,0,0,0,0,0,0,0,0,0,0,0,0,0,0,0,0,0,0,0,
0,0,0,0,0,0,0,0,0,0,0,0,0,0,0,0,0,0,0,0,0,0,0,0,0,0,0,0,0,0,0,0,0,0,0,0,
0,0,0,0,0,0,0,0,0,0,0,0,0,0,0,0,0,0,0,0,0,0,0,0,0,0,0,0,0,0,0,0,0,0,0,0,
0,0,0,0,0,0,0,0,0,0,0,0,0,0,0,0,0,0,0,0,0,0,0,0,0,0,0,0,0,0,0,0,0,0,0,0,
0,0,0,0,0,0,0,0,0,0,0,0,0,0,0,0,0,0,0,0,0,0,0,0,0,0,0,0,0,0,0,0,0,0,0,0
</data></layer></map>